X: 1
T: Jolly Pigeons, The
M: 4/4
L: 1/8
R: reel
K: Emin
EFGA BE E2 | B3 A B2 dB | AF F2 DF F2 | AdBF AFED |
EFGA BE E2 | B3 A B2 de | fedB AFDF | BAFE D4 :|
Beed e2 ge | fedA Bdde | fede f3 e | fedB BA A2 |
Beed e2 ge | fedA Bdde | fedB AFDF | BAFE D4 :|
